svg/fluentui-system-icons/ic_fluent_notebook_subsection_20_regular.svg

<svg width="20" height="20" viewBox="0 0 20 20" fill="none" xmlns="http://www.w3.org/2000/svg">
<path d="M4 5.5C4 3.567 5.567 2 7.5 2H10C10.8179 2 11.5441 2.39278 12.0002 3H7.5C6.11929 3 5 4.11929 5 5.5V15.0002C4.39278 14.5441 4 13.8179 4 13V5.5ZM13.4322 2.00548L13.5 2C13.7531 2 13.9623 2.22572 13.9954 2.51858L14 2.59999V17.4C14 17.7314 13.7761 18 13.5 18C13.2469 18 13.0377 17.7743 13.0046 17.4814L13 17.4V17H8C6.89543 17 6 16.1046 6 15V6C6 4.89543 6.89543 4 8 4H13V3.60022L13 3.59918L13 2.59999C13 2.29624 13.1881 2.04521 13.4322 2.00548ZM8 5C7.44772 5 7 5.44772 7 6V15C7 15.5523 7.44772 16 8 16H13V5H8Z" fill="#212121"/>
</svg>

<svg xmlns="http://www.w3.org/2000/svg" width="20" height="20"><path d="M4 5.5A3.5 3.5 0 0 1 7.5 2H10c.818 0 1.544.393 2 1H7.5A2.5 2.5 0 0 0 5 5.5V15a2.496 2.496 0 0 1-1-2V5.5Zm9.432-3.495L13.5 2c.253 0 .462.226.495.519L14 2.6v14.8c0 .331-.224.6-.5.6-.253 0-.462-.226-.495-.519L13 17.4V17H8a2 2 0 0 1-2-2V6a2 2 0 0 1 2-2h5V2.6c0-.304.188-.555.432-.595ZM8 5a1 1 0 0 0-1 1v9a1 1 0 0 0 1 1h5V5H8Z"/></svg>
